img/main/order-bg.svg

<svg width="1440" height="640" fill="none" xmlns="http://www.w3.org/2000/svg"><path fill="#162F71" d="M0 0h1440v640H0z"/><path d="M1494.84 714.981c-9.17 87.842-53.09 161.17-131.75 219.986-78.67 58.816-168.79 80.583-270.37 65.313-101.574-15.282-182.149-64.167-241.721-146.662-59.572-82.494-87.83-172.246-84.775-269.253 3.055-97.008 26.349-198.598 69.882-304.772 43.533-106.173 122.581-156.205 237.144-150.094 114.56 6.111 213.46 37.428 296.71 93.952 83.25 56.524 127.17 130.616 131.75 222.277 4.58 91.661 2.29 181.412-6.87 269.253z" fill="#1E3778"/></svg>

<svg width="1440" height="640" viewBox="0 0 1440 640" fill="none" xmlns="http://www.w3.org/2000/svg">
<rect width="1440" height="640" fill="#162F71"/>
<path d="M1494.84 714.981C1485.67 802.823 1441.75 876.151 1363.09 934.967C1284.42 993.783 1194.3 1015.55 1092.72 1000.28C991.146 984.998 910.571 936.113 850.999 853.618C791.427 771.124 763.169 681.372 766.224 584.365C769.279 487.357 792.573 385.767 836.106 279.593C879.639 173.42 958.687 123.388 1073.25 129.499C1187.81 135.61 1286.71 166.927 1369.96 223.451C1453.21 279.975 1497.13 354.067 1501.71 445.728C1506.29 537.389 1504 627.14 1494.84 714.981Z" fill="#1E3778"/>
</svg>
